symbols/web/ios_share/materialsymbolsrounded/ios_share_wght500grad200_40px.svg

<svg xmlns="http://www.w3.org/2000/svg" height="40" width="40"><path d="M19.958 27.125q-.75 0-1.291-.542-.542-.541-.542-1.333V7.208l-1.833 1.875q-.5.5-1.271.5-.771 0-1.354-.583-.5-.542-.5-1.312 0-.771.541-1.355l5-4.958q.25-.292.584-.417.333-.125.666-.125.375 0 .709.125.333.125.625.417l5.041 5.042q.5.541.5 1.291 0 .75-.5 1.292-.583.583-1.333.563-.75-.021-1.333-.563l-1.834-1.792V25.25q0 .792-.541 1.333-.542.542-1.334.542ZM9.583 39.875q-1.5 0-2.604-1.104t-1.104-2.604v-19.75q0-1.5 1.104-2.604 1.104-1.105 2.604-1.105h4q.75 0 1.25.542t.5 1.333q0 .75-.5 1.292t-1.25.542h-4v19.75h20.875v-19.75h-4.083q-.75 0-1.25-.542t-.5-1.292q0-.791.5-1.333.5-.542 1.25-.542h4.083q1.5 0 2.604 1.105 1.105 1.104 1.105 2.604v19.75q0 1.5-1.105 2.604-1.104 1.104-2.604 1.104Z"/></svg>

<svg xmlns="http://www.w3.org/2000/svg" height="40" width="40"><path d="M19.958 27.125Q19.208 27.125 18.667 26.583Q18.125 26.042 18.125 25.25V7.208L16.292 9.083Q15.792 9.583 15.021 9.583Q14.25 9.583 13.667 9Q13.167 8.458 13.167 7.688Q13.167 6.917 13.708 6.333L18.708 1.375Q18.958 1.083 19.292 0.958Q19.625 0.833 19.958 0.833Q20.333 0.833 20.667 0.958Q21 1.083 21.292 1.375L26.333 6.417Q26.833 6.958 26.833 7.708Q26.833 8.458 26.333 9Q25.75 9.583 25 9.563Q24.25 9.542 23.667 9L21.833 7.208V25.25Q21.833 26.042 21.292 26.583Q20.75 27.125 19.958 27.125ZM9.583 39.875Q8.083 39.875 6.979 38.771Q5.875 37.667 5.875 36.167V16.417Q5.875 14.917 6.979 13.813Q8.083 12.708 9.583 12.708H13.583Q14.333 12.708 14.833 13.25Q15.333 13.792 15.333 14.583Q15.333 15.333 14.833 15.875Q14.333 16.417 13.583 16.417H9.583Q9.583 16.417 9.583 16.417Q9.583 16.417 9.583 16.417V36.167Q9.583 36.167 9.583 36.167Q9.583 36.167 9.583 36.167H30.458Q30.458 36.167 30.458 36.167Q30.458 36.167 30.458 36.167V16.417Q30.458 16.417 30.458 16.417Q30.458 16.417 30.458 16.417H26.375Q25.625 16.417 25.125 15.875Q24.625 15.333 24.625 14.583Q24.625 13.792 25.125 13.25Q25.625 12.708 26.375 12.708H30.458Q31.958 12.708 33.062 13.813Q34.167 14.917 34.167 16.417V36.167Q34.167 37.667 33.062 38.771Q31.958 39.875 30.458 39.875Z"/></svg>
